!!!OTL: Renmin gongshe shi huayuan
!!!ARE: Asia, China,ÿGansu Linxia
!! I, 117, 2)
!!!SCT: C1813
!!!YEM: Copyright 1995, estate of Helmut Schaffrath.
**kern
*ICvox
*Ivox
!! Mixed meters:  2/4; 3/4
*M3/4
*k[b-e-a-]
*E-:
{8b-
8b-
8cc
16cc
16ee-
=1
16ee-
16ff
16cc
16b-
4g
=2
8b-
8b-
8cc
16ee-
16ff
=3
8cc
[4.cc
=4
4.cc]}
{16ee-
16cc
=5
8b-
8b-
8.cc
16ee-
=6
16b-
16g
16b-
16g
4g
=7
8b-
8b-
16cc
16b-
16cc
16ee-
=8
16b-
16g
16b-
16g
4g}
=9
{8b-
8b-
8cc
16cc
16ee-
=10
16ee-
16ff
16cc
16b-
16g
16b-
16g
16f
=11
8e-
16e-
16c
8e-
8f
=12
16g
16b-
16b-
16g
4.f
16e-
16c
=13
*M2/4
8f
16f
16e-
8f
16g
16b-
=14
8f
8f
4r}
==
!!!AGN: Shange, Huar, Jindianhualing
!! Han Hui
!!!ONB: ESAC (Essen Associative Code) Database: SENGANSU
!!!AMT: irregular
!!!AIN: vox
!!!EED: Helmut Schaffrath
!!!EEV: 1.0
*-
!!!ONB: Tied note syntax fixed by Craig Sapp, 2004/05/03/
